!!!COM: Josephine Lang
!!!CNT: Deutsch
!!!TXO: Deutsch
!!!OTL: "Am Ufer blies ich ein lustig Stu2ck"
!!!LYR: Scheffel
!!!OPS: Op. 45
!!!ONM: No. 2
!!!ENC: Alyona Dzerbina, phrasing by LVH
!!!YOR: Josephine Lang: Selected Songs
!!!YOR: Da Capo Press, 1982
!!!ODT: 1870/
!!NB: Vocal melody only encoded.
**kern
*staff1
*clefG2
*k[b-e-]
*M6/8
*MM[Quasi allegro ma non troppo]
2.r
=2
2.r
=3
2.r
=4
2.r
=5
2.r
=6
4r
8r
4r
{8d
=7
4g
8g
8.d
16e-
8f#
=8
4g
8g
4d
8d
=9
4g
8g
8.f
16a
8cc
=10
(4.dd
8B-)}
8r
8r
=11
{8g
8b-
8g
4d
8d
=12
(8g
8b-)
8g
4dd
8d
=13
4g
8a
4b-
8cc
=14
4.dd
8d}
8r
{8d
=15
(8g
8f)
8e-
8B-
8e-
8f
=16
(8g
8f)
8e-
(8B-
8e-)
8f
=17
4g
8a-
8.b-
16cc
8dd
=18
4.ee-
8e-}
8r
8r
=19
{8g
8f
8e-
(8B-
8e-)
8f
=20
(8g
8f)
8e-
4b-
8f
=21
(8.g
16a)
8b-
(8cc
8dd)
8ee-
=22
(4.dd
8g)}
8r
8r
=23
2.r
=24
2.r
=25
2.r
=26
4r
8r
4r
{8g
=27
4g
8g
4f
8f
=28
4g
8g
4cc-
8cc-
=29
4b-
8b-
4b-
8a-
=30
(8g
8a-)
[8g
4.g]}
=31
{8g
8.g
16g
4f
8f
=32
4g
8g
4cc-
8cc-
=33
4b-
8b-
(8b-
8.a)
16g
=34
8f#
8a}
8r
4r
8r
=35
{8g
8g
8g
8.f
16f
8f
=36
4g
8g
4cc-
8cc-
=37
8.b-
16b-
8b-
8b-
8.a-
16a-
=38
(8g
8a-)
8g}
4r
8r
=39
{8g
8.g
16g
4g
8f
=40
4g
8g
4cc
8cc
=41
4b-
8b-
8.b-
16a
8g
=42
8dd
8d}
8r
4r
{8d
=43
4g
8g
8.d
16e-
8f#
=44
(8g
8b-)
8g
8d
8r
8d
=45
(8.b-
16a)
8g
(8.f
16a)
8cc
=46
(4.dd
B-q)
4B-}
8r
=47
{8b-
8a
8f
4d
8d
=48
(8b-
8a)
8g
4d
8d
=49
4dd
8dd
(8dd
8a)
8d
=50
(4dd
ddq
16ff
16ee-)
4.dd}
=51
{8g
8f
8e-
8B-
8.e-
16f
=52
(8g
8f)
8e-
(8B-
8e-)
8f
=53
4g
8g
(8.f
16a)
8cc
=54
(4dd
8B-)
4.B-}
=55
{8g
8f
8e-
(8B-
8e-)
8f
=56
(8g
8f)
8e-
(8B-
8e-)
8f
=57
4g
8a
4b-
8cc
=58
4.dd
4g}
{8bn
=59
*k[f#]
([4.a
8a]
8b)
8cc
=60
(4.dd
4gg)
8b
=61
([4.a
8a]
8b)
8cc
=62
[4.dd
4dd]}
{8dd
=63
4.ee
4.dd
=64
(4.cc
4dd)
8a
=65
(4.b
4.dd)
=66
[4.a
4a]}
{8b
=67
[4.a
8a]
8b
8cc
=68
(4.dd
4gg)
8b
=69
([4.a
8a]
8b)
8cc
=70
[4.dd
4dd]}
{8dd
=71
4.ee
4.dd
=72
(4.cc
4b)
8cc
=73
([4.dd
4.dd]
=74
[4.ff#
4ff#]
8gg)
=75
4.gg}
4r
8r
=76
*k[b-e-]
2.r
=77
2.r
=78
2.r
=79
2.r
=80
2.r
==
*-
